X: 142101
Q: "Hornpipe."
M: C
L: 1/8
K: D
uA2 |\
(cd) |\
eAAA fAAA | gAAA fAAA | eAfA gAfA | (3efd (cB) AGFE |\
(cd) |\
eAAA fAAA | gAAA fAAA | eAfA gAfA | (3efd (3cdB (3ABG (3FGE |\


